X:31
T:Crystallize
% Key F
Z:2013
L:1/16
Q:1/4=150
M:4/4
I:linebreak $
K:Cmaj
|| d8- d2c2B2c2 | A16- | A16 | A4 B4 c4 e4 | d16- | d4 B2c2 d4 B4 | A8- A4 E4 | 
C4 A,4 E,4 A,4 | D8- D2C2B,2C2 | A,4 E,4 A,4 C4 | D8- D2C2B,2C2 | E8- E4 C4 | D16- | 
!wedge!D4 B,2C2 D4 B,4 | A,12 B,4 | C4 E4 A4 B4 | c16- | c4 B2c2 B4 E4 | A8- A2E2C2E2 | 
A2E2B2E2 c2E2d2E2 | e16- | e4 d2e2 d4 B4 | c16 | c2A2E2C2 A4 c4 | d2B2G2D2 B,2G,2D,2G,2 | 
B,2G,2D2B,2 G2D2B2G2 | c2A2E2C2 A,2E,2A,2C2 | A,2E,2C2A,2 E2C2A2E2 | A8 E8 | C8 B,8 | 
A,2E,2A,2B,2 C2A,2E2C2 | A,A,EE AAee a6 z2 | eecc AAEE CCEE AAcc | AAEE BBEE ccEE ddEE | 
eecc AAEE CCEE AAcc | AAEE BBEE ccEE ddEE |[K:clef=treble] ddBB GGDD B,B,DD GGBB | 
B,B,G,G, DDB,B, GGDD BBGG | ccBB AAEE AAEE ccAA | A,A,E,E, CCA,A, EECC AAEE | CCA,A, EECC AAEE ccAA | 
D4 C2B,2 C4 A,4 | D4 A,2D2 (^E2E2) =E4 | E12 G4 | A4 c4 e4 g4 | g4 a4 f4 e4 | d6 d2 e4 ^e4 | 
e16 | eecc AAEE CCEE AAcc | d4 B4 G4 B4 | ddBB GGDD B,B,DD GGBB | c4 B4 A2E2C2B,2 | C8 A,8 | 
D4 C2B,2 C4 A,4 | E12 E4 | A8 B8 | c4 B4 (A4 E4) | D8- D2C2B,2C2 | A,4 E,4 A,4 C4 | D8- D2C2B,2(C2 | 
E12) C4 | D16- | D4 B,2C2 D4 B,2C2 | A,4 E,4 A,4 B,4 | A,2E,2A,2B,2 C2E2 (3DE^E(3GAB | d8 c2(3cBc B2c2 | 
A2E2C2E2 A4 E2A2 | c4 (3E2A2c2 d4 (3E2A2d2 | e4 g4 e4 g4 | b16 | d'4 b2c'2 d'4 b4 | A16 | 
a2e2c2A2 E2C2A,2C2 | A16 | A4 AECA, E,F,E,A, CEAd | c6 E2 c2B2 A4- | A4 AECA, E2B2 A4 | 
A2E2B2E2 c2E2d2E2 | e4 d2e2 d4 B4 | c8 c2A2E2A2 | cAEC A,E,A,C E2A2B2c2 | d2B2G2D2 B,2G,2D,2G,2 | 
BGDB, DB,GD G2D2B2G2 | c2A2E2C2 A,2E,2A,2B,2 | CA,E,A, ECA,E, E2C2A2E2 | d8- d2c2B2c2 | A4 E4 C4 E4 | 
d8- d2c2B2c2 | e12 c4 | d6 c2 B4 c2B2 | d8 [cg]8 | z16 | a8 z8 | eecc AAEE CCEE AAcc | 
AAEE BBEE ccEE ddEE | eecc AAEE CCEE AAcc | AAEE BBEE ccEE ddEE |"^I04" ddBB GGDD B,B,DD GGBB | 
B,B,G,G, DDB,B, GGDD BBGG | ccBB AAEE AAEE ccAA | A,A,E,E, CCA,A, EECC AAEE | CCA,A, EECC AAEE ccAA | 
D4 C2B,2 C4 A,4 | D4 A,2D2 (^E2E2) =E4 | E12 G4 | A4 c4 e4 g4 | g4 a4 f4 e4 | d6 d2 e4 ^e4 | 
e16 |[K:clef=treble] eecc AAEE CCEE AAcc | d4 B4 G4 B4 | ddBB GGDD B,B,DD GGBB | c4 B4 A2E2C2B,2 | 
C8 A,8 | D4 C2B,2 C4 A,4 | E12 E4 | A8 B8 | c4 B4 (A4 E4) | D8- D2C2B,2C2 | A,4 E,4 A,4 C4 | 
D8- D2C2B,2(C2 | E12) C4 | D16- | D4 B,2C2 D4 B,2C2 | A,16- | A,16 |] 

